X:9
T:Petit Branle
S:http://www.fourwinds.demon.nl/branles.htm
Z:Jack Campin <http://www.campin.me.uk/> 2002
M:C|
L:1/8
K:G
   d2dc Bcde|decd B2G2|c2c2 cded|[1 c8      :|\
                                 [2 c6      ||
cd|e2e2 efg2|d4   d4  |Bcde c2B2|   abga f2d2|
   e2e2 efg2|d4   d4  |Bcde cdB2|[1 A3 G G2 :|\
                                 [2 A3 G G4 |]
